public/logos/ES.svg

<?xml version="1.0" encoding="UTF-8"?>
<svg xmlns="http://www.w3.org/2000/svg" xmlns:xlink="http://www.w3.org/1999/xlink" width="176.06pt" height="59pt" viewBox="0 0 176.06 59" version="1.1">
<g id="surface1">
<path style=" stroke:none;fill-rule:nonzero;fill:rgb(98.287964%,78.993225%,2.76947%);fill-opacity:1;" d="M 176 -0.03125 L 176 59 L 154.039062 59 C 110.011719 59 65.984375 59 21.960938 59 L 0 59 L 0 -0.03125 L 21.960938 -0.03125 C 65.984375 -0.03125 110.011719 -0.03125 154.035156 -0.03125 L 176 -0.03125 "/>
<path style=" stroke:none;fill-rule:nonzero;fill:rgb(83.862305%,11.787415%,14.657593%);fill-opacity:1;" d="M 30.957031 0 L 25.371094 7.816406 L 56.269531 7.816406 C 56.625 7.949219 57.246094 7.785156 57.261719 8.375 L 57.261719 8.621094 C 56.199219 10.488281 54.699219 12.210938 53.535156 14.019531 L 53.535156 14.207031 L 53.472656 14.332031 L 53.535156 14.394531 C 53.558594 15 54.800781 14.976562 55.210938 14.953125 L 67.742188 14.953125 L 71.464844 9.800781 L 71.652344 9.492188 C 72.632812 7.878906 72.519531 5.765625 71.589844 4.15625 L 71.40625 3.722656 L 71.09375 3.351562 C 69.394531 0.832031 66.28125 0.0390625 63.402344 0 L 30.957031 0 "/>
<path style=" stroke:none;fill-rule:nonzero;fill:rgb(83.862305%,11.787415%,14.657593%);fill-opacity:1;" d="M 23.078125 25.371094 L 34.367188 9.738281 L 48.636719 9.738281 C 49.917969 9.851562 49.871094 10.417969 49.132812 11.351562 L 46.277344 15.386719 L 46.15625 15.570312 L 45.96875 15.820312 L 45.90625 15.945312 L 45.90625 16.441406 L 45.96875 16.5625 L 46.09375 16.6875 L 46.277344 16.75 L 46.527344 16.8125 L 46.839844 16.875 L 46.960938 16.875 L 47.148438 16.9375 L 66.320312 16.9375 L 66.007812 17.371094 C 62.460938 22.15625 56.667969 25.550781 50.621094 25.371094 L 23.078125 25.371094 "/>
<path style=" stroke:none;fill-rule:nonzero;fill:rgb(83.862305%,11.787415%,14.657593%);fill-opacity:1;" d="M 87.78125 16.9375 L 81.640625 25.371094 L 65.511719 25.371094 L 71.589844 16.9375 L 87.78125 16.9375 "/>
<path style=" stroke:none;fill-rule:nonzero;fill:rgb(83.862305%,11.787415%,14.657593%);fill-opacity:1;" d="M 112.535156 14.953125 L 72.957031 14.953125 L 83.8125 0 L 99.941406 0 L 93.738281 8.621094 L 100.933594 8.621094 L 107.136719 0 L 123.328125 0 L 112.535156 14.953125 "/>
<path style=" stroke:none;fill-rule:nonzero;fill:rgb(83.862305%,11.787415%,14.657593%);fill-opacity:1;" d="M 111.109375 16.9375 L 104.96875 25.371094 L 88.835938 25.371094 L 94.976562 16.9375 L 111.109375 16.9375 "/>
<path style=" stroke:none;fill-rule:nonzero;fill:rgb(83.862305%,11.787415%,14.657593%);fill-opacity:1;" d="M 0 20.222656 L 23.824219 20.222656 L 22.519531 22.085938 L 0 22.085938 L 0 20.222656 "/>
<path style=" stroke:none;fill-rule:nonzero;fill:rgb(83.862305%,11.787415%,14.657593%);fill-opacity:1;" d="M 0 16.9375 L 26.242188 16.9375 L 24.9375 18.671875 L 0 18.671875 L 0 16.9375 "/>
<path style=" stroke:none;fill-rule:nonzero;fill:rgb(83.862305%,11.787415%,14.657593%);fill-opacity:1;" d="M 0 23.574219 L 21.402344 23.574219 L 20.097656 25.371094 L 0 25.371094 L 0 23.574219 "/>
<path style=" stroke:none;fill-rule:nonzero;fill:rgb(83.862305%,11.787415%,14.657593%);fill-opacity:1;" d="M 176 22.085938 L 152.300781 22.085938 L 153.605469 20.222656 L 176 20.222656 L 176 22.085938 "/>
<path style=" stroke:none;fill-rule:nonzero;fill:rgb(83.862305%,11.787415%,14.657593%);fill-opacity:1;" d="M 176 25.371094 L 149.882812 25.371094 L 151.246094 23.574219 L 176 23.574219 L 176 25.371094 "/>
<path style=" stroke:none;fill-rule:nonzero;fill:rgb(83.862305%,11.787415%,14.657593%);fill-opacity:1;" d="M 156.023438 16.9375 L 176 16.9375 L 176 18.671875 L 154.78125 18.671875 L 156.023438 16.9375 "/>
<path style=" stroke:none;fill-rule:nonzero;fill:rgb(83.862305%,11.787415%,14.657593%);fill-opacity:1;" d="M 145.722656 0 L 134.867188 14.953125 L 117.746094 14.953125 L 128.601562 0 L 145.722656 0 "/>
<path style=" stroke:none;fill-rule:nonzero;fill:rgb(83.862305%,11.787415%,14.657593%);fill-opacity:1;" d="M 116.382812 16.9375 L 114.644531 19.355469 C 111.632812 23.757812 117.605469 25.617188 121.035156 25.371094 L 146.964844 25.371094 L 153.105469 16.9375 L 116.382812 16.9375 "/>
</g>
</svg>

<svg xmlns="http://www.w3.org/2000/svg" width="234.747" height="59pt" viewBox="0 0 176.06 59"><path d="M176-.031V59H0V-.031h176" style="stroke:none;fill-rule:nonzero;fill:#fbc907;fill-opacity:1"/><path d="m30.957 0-5.586 7.816H56.27c.355.133.976-.03.992.559v.246c-1.063 1.867-2.563 3.59-3.727 5.399v.187l-.062.125.062.063c.024.605 1.266.582 1.676.558h12.531l3.723-5.152.187-.309c.98-1.613.868-3.726-.062-5.336l-.184-.433-.312-.371C69.394.832 66.28.039 63.402 0z" style="stroke:none;fill-rule:nonzero;fill:#d61e25;fill-opacity:1"/><path d="m23.078 25.371 11.29-15.633h14.269c1.281.114 1.234.68.496 1.614l-2.856 4.035-.12.183-.188.25-.063.125v.496l.063.122.125.125.183.062.25.063.313.062h.12l.188.063H66.32l-.312.433c-3.547 4.785-9.34 8.18-15.387 8zM87.781 16.938l-6.14 8.433H65.51l6.079-8.433zM112.535 14.953H72.957L83.813 0H99.94l-6.203 8.621h7.196L107.137 0h16.191zM111.11 16.938l-6.141 8.433H88.836l6.14-8.433zM0 20.223h23.824l-1.304 1.863H0zM0 16.938h26.242l-1.305 1.734H0zM0 23.574h21.402l-1.304 1.797H0zM176 22.086h-23.7l1.305-1.863H176zM176 25.371h-26.117l1.363-1.797H176zM156.023 16.938H176v1.734h-21.219zM145.723 0l-10.856 14.953h-17.12L128.601 0zM116.383 16.938l-1.738 2.417c-3.012 4.403 2.96 6.262 6.39 6.016h25.93l6.14-8.433z" style="stroke:none;fill-rule:nonzero;fill:#d61e25;fill-opacity:1"/></svg>
